findly-builder/apps/searchassist/src/assets/icons/pricing/query-limits.svg

<svg width="34" height="34" viewBox="0 0 34 34" fill="none" xmlns="http://www.w3.org/2000/svg">
<path d="M25.5003 12.0415V29.7498C25.5003 30.5325 24.8664 31.1665 24.0837 31.1665H7.08366C6.30095 31.1665 5.66699 30.5325 5.66699 29.7498V7.08317C5.66699 6.30046 6.30095 5.6665 7.08366 5.6665H19.1253L25.5003 12.0415Z" fill="#85B7FE"/>
<path opacity="0.05" d="M7.08301 5.6665H25.4997V29.7498H9.69038C8.25034 29.7498 7.08301 28.5825 7.08301 27.1425V5.6665Z" fill="#3C4043"/>
<path opacity="0.07" d="M7.79199 5.6665H21.9169C23.8959 5.6665 25.5003 7.27088 25.5003 9.24996V29.0415H9.80295C8.69228 29.0415 7.79199 28.1412 7.79199 27.0305V5.6665Z" fill="#3C4043"/>
<path d="M28.3333 9.91683V26.9168C28.3333 27.6995 27.6994 28.3335 26.9167 28.3335H9.91667C9.13396 28.3335 8.5 27.6995 8.5 26.9168V4.25016C8.5 3.46745 9.13396 2.8335 9.91667 2.8335H21.25L28.3333 9.91683Z" fill="#85B7FE"/>
<path d="M21.25 2.8335V8.50016C21.25 9.28287 21.884 9.91683 22.6667 9.91683H28.3333L21.25 2.8335Z" fill="#07377F"/>
<path d="M17.1186 19.6535C17.0719 19.5317 16.9713 19.1704 16.9713 18.8127C16.9713 16.7769 19.0672 16.699 19.0672 15.1889C19.0672 14.2383 18.128 14.1795 17.9601 14.1795C16.8934 14.1795 16.0604 14.7894 15.7104 15.0975V12.9874C16.0703 12.7727 16.8934 12.3428 18.2059 12.3428C21.2447 12.3428 21.2829 14.4316 21.2829 14.88C21.2829 17.2912 18.7945 17.4704 18.7945 19.0153C18.7945 19.3376 18.9114 19.5734 18.9624 19.6528H17.1186V19.6535ZM18.1414 22.9678C17.5627 22.9678 16.9514 22.6065 16.9514 21.906C16.9514 21.2054 17.5868 20.8569 18.1414 20.8569C18.6961 20.8569 19.3123 21.1679 19.3123 21.906C19.3123 22.6441 18.7202 22.9678 18.1414 22.9678Z" fill="#07377F"/>
</svg>

<svg width="34" height="34" fill="none" xmlns="http://www.w3.org/2000/svg"><path d="M25.5 12.041V29.75c0 .782-.634 1.416-1.416 1.416h-17a1.416 1.416 0 0 1-1.417-1.416V7.083c0-.783.634-1.417 1.417-1.417h12.041l6.375 6.375Z" fill="#85B7FE"/><path opacity=".05" d="M7.083 5.667H25.5V29.75H9.69a2.607 2.607 0 0 1-2.607-2.608V5.666Z" fill="#3C4043"/><path opacity=".07" d="M7.792 5.667h14.125A3.583 3.583 0 0 1 25.5 9.25v19.791H9.803a2.01 2.01 0 0 1-2.011-2.01V5.666Z" fill="#3C4043"/><path d="M28.333 9.917v17c0 .782-.634 1.416-1.416 1.416h-17A1.416 1.416 0 0 1 8.5 26.918V4.25c0-.783.634-1.417 1.417-1.417H21.25l7.083 7.084Z" fill="#85B7FE"/><path d="M21.25 2.833V8.5c0 .783.634 1.417 1.417 1.417h5.666L21.25 2.834Zm-4.131 16.821a2.71 2.71 0 0 1-.148-.841c0-2.036 2.096-2.114 2.096-3.624 0-.95-.939-1.01-1.107-1.01-1.067 0-1.9.61-2.25.918v-2.11c.36-.214 1.183-.644 2.496-.644 3.039 0 3.077 2.089 3.077 2.537 0 2.411-2.489 2.59-2.489 4.135 0 .323.117.558.168.638H17.12Zm1.022 3.314c-.578 0-1.19-.361-1.19-1.062 0-.7.636-1.05 1.19-1.05.555 0 1.171.312 1.171 1.05s-.592 1.062-1.17 1.062Z" fill="#07377F"/></svg>
